X:510
T:Reis Glorios
Z:Jack Campin, http://www.campin.me.uk/
F:Jack Campin's Nine-Note Tunebook
% last edit 03-02-2013
C:Guiraut de Bornelh
M:3/4
L:1/4
Q:1/4=100
K:C
 D>    D   A| A>     (A  B)| c  (B/A/  B)| G  (A/B/c)    |(B  A)  z   :|
(A/G/A/B/) A|(G/F/) E2     | E>    G   A | D   E/(F/E/D/)|(D  C)  z    |
 C>    D   E|(F/E/  D2)    |(A/G/A/B/) A |(G>F)   E      | F (G/F/E/D/)|E2 z |
 C   D     E| F    (G/A/ G)|(F/E/D/E/  F)|(E   D) z     |]

